X: 50
T: No_146_Two_Foxes_Face_Each_Other.krn
%%abc-version 2.0
%%abcx-abcm2ps-target-version 5.9.1 (29 Sep 2008)
%%abc-creator hum2abc beta
%%abcx-conversion-date 2020/08/10 18:54:57
%%gracespace 0 6 6
%%humdrum-veritas 3783231637
%%humdrum-veritas-data 648836136
%%linebreak <none>
%%barnumbers 0
L: 1/8
M: 3/4
%%staves {1 2}
V: 1 clef=bass
V: 2 clef=bass
K: G
[V:1] [K:clef=bass][M:3/4]D4D3/D/ | 
[V:2] [K:clef=bass][M:3/4]G,,G,, G,,G,, G,,G,, | 
[V:1] D4B,2 | 
[V:2] z6 | 
[V:1] D2B,>B, B,B,/A,/ ||  
[V:2] z6 ||  
[V:1] [M:2/4]G,>G,G,2- | 
[V:2] [M:2/4]z4 | 
[V:1] G,4 ||  
[V:2] z4 ||  
[V:1] [M:3/4]D2B,>B, B,B,/A,/ ||  
[V:2] [M:3/4]z6 ||  
[V:1] [M:2/4]G,4 | 
[V:2] [M:2/4]z4 | 
[V:1] G,2E,2 ||  
[V:2] z4 ||  
[V:1] [M:3/4]G,2E,2G,E, ||  
[V:2] [M:3/4]z6 ||  
[V:1] [M:2/4]D,>D,D,2- | 
[V:2] [M:2/4]z4 | 
[V:1] D,4 ||  
[V:2] z4 ||  
[V:1] [M:3/4]G,2D,2D,B,, ||  
[V:2] [M:3/4]z6 ||  
[V:1] [M:2/4]D,>D,D,2- | 
[V:2] [M:2/4]z4 | 
[V:1] D,2B,,2 ||  
[V:2] z4 ||  
[V:1] [M:3/4]D,>G,D,2B,,2 | 
[V:2] [M:3/4]z6 | 
[V:1] G,,>G,,G,,4 | 
[V:2] z6 | 
[V:1] G,,6 | 
[V:2] z6 | 
[V:1] D>D B,>B, B,3/B,/ ||  
[V:2] z6 ||  
[V:1] [M:2/4]G,4 | 
[V:2] [M:2/4]z4 | 
[V:1] G,>G,E,2 ||  
[V:2] z4 ||  
[V:1] [M:3/4]G,2E,>G, G,E, ||  
[V:2] [M:3/4]z6 ||  
[V:1] [M:2/4]D,>D,D,2- | 
[V:2] [M:2/4]z4 | 
[V:1] D,4 ||  
[V:2] z4 ||  
[V:1] [M:3/4]G,2D,2D,B,, ||  
[V:2] [M:3/4]z6 ||  
[V:1] [M:2/4]D,>D,D,2- | 
[V:2] [M:2/4]z4 | 
[V:1] D,2B,,2 ||  
[V:2] z4 ||  
[V:1] [M:3/4]D,>G,D,2B,,2 | 
[V:2] [M:3/4]z6 | 
[V:1] G,,>G,,G,,4 | 
[V:2] z6 | 
[V:1] G,,6 |]  
[V:2] z6 |]  


